X:1
T:Clairières dans le ciel
T:Parfois, je suis triste
T:A Fernand Francell
T:Clairières dans le ciel
T:Lili Boulanger
T:3. Parfois, je suis triste 
T:Francis Jammes
T:Creative Commons copyright waiver (CC0 1.0 Universal)
T:Creative Commons copyright waiver (CC0 1.0 Universal)
T:Creative Commons copyright waiver (CC0 1.0 Universal)
T:Creative Commons copyright waiver (CC0 1.0 Universal)
T:Creative Commons copyright waiver (CC0 1.0 Universal)
T:Creative Commons copyright waiver (CC0 1.0 Universal)
C:Lili Boulanger
Z:Francis Jammes
Z:Creative Commons copyright waiver (CC0 1.0 Universal)
%%score ( 1 2 ) { ( 3 6 8 ) | ( 4 5 7 ) }
L:1/8
Q:1/4=66
M:4/4
K:C
V:1 treble nm="Chant\nVoice"
V:2 treble 
V:3 treble nm="Piano"
V:6 treble 
V:8 treble 
V:4 bass 
V:5 bass 
V:7 bass 
V:1
"^Assez lent et assez libre" z2 | z8 | z2 z!p! e e4- | e2- e z!<(! (e3 e!<)! |!>(! ^f6!>)! e2- | %5
w: ||Par- fois,|_ _ je suis|tris- te|
 e) z z2 z4 | z2!p!"^ardemment clair" ^c3/2 c/ ^g4- | g2 (^d2 ^c3 =A | ^G8- |!>(! G4!>)! ^G2) z2 | %10
w: _|Et, sou- dain,|_ je pen- se‿à|el-|* le|
 z2 z B ^f4- | f2"^sans ralentir" e2 B3 =A |"^Plus animé encore" B8- | B z z2 z4 | %14
w: A- lors,|_ je suis joy-|\- eux|_|
"^Tempo I.""^*" z2!mf! =a2 z ^f (3!tenuto!f f f | !>!g6 =f2 | %16
w: Mais je re- de- viens|tris- te|
"^poco accel." z2 z!<(! e ^c c!<)! (3!tenuto!d d d | f6- f f | g4-!>(! g"^cédez un peu" f2 g!>)! | %19
w: de ce que je ne sais|pas _ com-|bien _ el- le|
!>(! !tenuto!a4!>)! ^c2"^*" z2 ||[M:3/4] z6 | z6 |"^Un peu plus lent" z2 z2!p! ^c2 | ^d3 ^A A d | %24
w: m'ai- me.|||Elle|est la jeu- ne|
 ^c4 c2 | ^d3 ^B ^c d | =f3- f/"^*" z/ f2 |"^cresc. poco" =g3 d d g | f6 | g3 d (3d e g | %30
w: fille à|l'â- me tou- te|clai- re, et|qui, de- dans son|cœur|garde a- vec ja- lou-|
!mf! a4-"^*" a!p! A |!<(! ^c3 c B A!<)! | e2- e!>(! d2!>)! e |!p! ^f6- | %34
w: si- e l'u-|ni- que pas- si-|on _ que l'on|donne|
 f2!>(!"^cédez" ^F3!>)! ^c ||[M:4/4] ^c4- c z z2 | z8 ||[M:3/4] z6 || %38
w: _ à un|seul _|||
[M:4/4]"^Tempo I." z2!p! A2 A3 A | e4- e2 d2 | c3 B A2 (3A c d | e2 z E2 E (3E E D | %42
w: Elle est par-|ti- e a-|vant que s'ou- vrent les til-|leuls, et, comme ils ont fleu-|
!<(! G3/2 G/ c2-!<)! c !tenuto!c !tenuto!c!>(! !tenuto!d!>)! | (!tenuto!d6 F2-) | F z z2 z4 | %45
w: \- ri de- puis _ qu'elle est par-|ti- e,|_|
 z!mf! A (3!tenuto!=B B B (3!tenuto!c c c !tenuto!e2 | %46
w: Je me suis é- ton- né de voir,|
 z !tenuto!e !tenuto!d3/2 !tenuto!g/ !tenuto!e2- e z | z!p! (A B3/2 B/!>(! G/ G/ A3)!>)! | %48
w: ô mes a- mis, _|des bran- ches de til- leuls|
!pp! (3(A d g e4 d2 | A8-) | A2 z2 z4 | z8 |] %52
w: qui n'a- vaient pas de|fleurs|_||
V:2
 x2 | x8 | x8 | x8 | x8 | x8 | x8 | x8 | x8 | x8 | x8 | x8 | x8 | x8 | x8 | x2 x2!>(! x2!>)! x2 | %16
 x8 | x8 | x8 | x8 ||[M:3/4] x6 | x6 | x6 | x6 | x6 | x11/2 !stemless!_e/ | x6 | x6 | x6 | x6 | %30
 x6 | x6 | x6 | x6 | x6 ||[M:4/4] x8 | x8 ||[M:3/4] x6 ||[M:4/4] x8 | x8 | x8 | x8 | x8 | x8 | x8 | %45
 x8 | x8 | x8 | x8 | x8 | x8 | x8 |] %52
V:3
!p!"^Assez lent et assez libre" (!>!E2- |!p! [A,E]2 [G,D]2 B,2 C2 | [A,E]2 [G,D]2 [CG]2 [EB]2 | %3
 [A,E]2 [G,D]2 B,2 C2) |[K:bass] [E,^F,E]8 | x z z2 z2[K:treble] z/ x3/2 | %6
!p![I:staff +1] (7:8:7(^d/4e/4^g/4[I:staff -1]^a/4^d'/4e'/4^g'/4)[I:staff +1] (7:8:7(c/4e/4g/4[I:staff -1]a/4d'/4e'/4g'/4)[I:staff +1] (7:8:7(d/4e/4g/4[I:staff -1]a/4d'/4e'/4g'/4)[I:staff +1] (7:8:7(c/4e/4g/4[I:staff -1]a/4d'/4e'/4g'/4) | %7
[I:staff +1] (7:8:7(^d/4^f/4^g/4[I:staff -1]=a/4^c'/4^d'/4^g'/4)[I:staff +1] (7:8:7(^c/4f/4g/4[I:staff -1]a/4c'/4d'/4g'/4)[I:staff +1] (7:8:7(d/4f/4g/4[I:staff -1]a/4c'/4d'/4g'/4)[I:staff +1] (7:8:7(c/4f/4g/4[I:staff -1]a/4c'/4d'/4g'/4) | %8
!mf! ([^e^e']2 [^d^d']4 [^g^g']2) | ([=g=g']2 [=f=f']4!8va(! [c'c'']2) | %10
 ([^a^a']2 [^g^g']4 [e'e'']2) | ([^d'^d'']2 [bb']4 [^c'^c'']15/8{/[^d'b'^f'']-)} x/8- | %12
"^Plus animé encore" (3[d'b'f'']!8va)! ([^d'^f']"_lumineux et calme"^f) (3z ([=c'e']e) (3z ([b=d']d) (3z ([^c'e']e) | %13
 (3z ([^d'^f']^f) (3z ([=c'e']e) (3z ([b=d']d) (3z ([^c'e']e) | %14
"^Tempo I."!f! (!>!=A2"_très soutenu" ^F4 G2) | (!>!G2 E4 F2) |"^poco accel." (!>!E2 ^C4 D2) | %17
 (!>!E2 ^C4"_plus éteint"!>(! D2)!>)! | (G2!>(! E4"^cédez un peu" F2)!>)! | z z z2 z4 || %20
[M:3/4] z/ (^c'/^c- c/c'/c- c/c'/)"^rit."c- | (c/^c'/^c- c/c'/c- c/c'/c) | %22
!pp!"^Un peu plus lent" z/ ([^a^d']/[^f^c']- [fc']/[ad']/[fc']- [fc']/[ad']/[fc']-) | %23
 [fc']/([^a^d']/[^f^b]- [fb]/[ad']/[fb]- [fb]/[ad']/[fb]-) | %24
 [fb]/([^a^d']/[^f^c']- [fc']/[ad']/[fc']- [fc']/[ad']/[fc']-) | %25
 [fc']/([^a^d']/[^f^b]- [fb]/[ad']/[fb]- [fb]/[ad']/[fb]) | %26
 z/!8va(! ([_b=f']/[=f=c'=d']- [fc'd']/[bf']/[fc'd']- [fc'd']/[bf']/[fc'd']) | %27
"_cresc. poco" z/ ([c'g']/[gd'e']- [gd'e']/[c'g']/[gd'e']- [gd'e']/[c'g']/[gd'e']-) | %28
 [gd'e']/([_bf']/[fc'd']- [fc'd']/[bf']/[fc'd']- [fc'd']/[bf']/[fc'd']) | %29
 z/ ([c'g']/[gd'e']- [gd'e']/[c'g']/[gd'e']- [gd'e']/[c'g']/[gd'e']) | %30
 z/ ([d'a']/!mf!!>(![ae'^f']- [ae'f']/[d'a']/[ae'f']-!>(! [ae'f']/[d'a']/[ae'f'])!8va)!!>)!!>)! | %31
!p! z/!<(! (^D/[A^c]-!<)! [Ac]/^d/[a^c']- [ac']/!8va(!^d'/[a'^c''])!8va)! | %32
 !>![E^F=ce]4 !>![=DE_B=d]2 | %33
 !>![^C^F^G^c]/(C/[FG^Ac]- [FGAc]/c/[!courtesy!^f^g^a^c']- [fgac']/!8va(!c'/[^f'^g'^a'^c'']- | %34
 [f'g'a'c'']/)!8va)!(^C/[^F^GB^c]- [FGBc]/c/[^f^gb^c']- [fgbc']/!8va(!c'/[^f'^g'b'^c''])!8va)! || %35
[M:4/4] z2 (!>![=A,=F]4!<(!"^accel." [^G,=E]2 | [_DA]2 [=E=c]4!<)! [_Ae]2- || %37
[M:3/4] [Ae]2!>(!"^rit." [=Bg]4)!>)! || %38
[M:4/4]"^Tempo I." (3:2:2z!8va(! (e'2 (3:2:2z d'2 (3:2:2z!<(! ^f'2 (3:2:2z!<)! g'2 | %39
 (3:2:2z ^f'2 (3:2:2z!>(! e'2 (3:2:2z!>)!!pp! d'2 (3:2:2z f'2 | %40
 (3:2:2z e'2 (3:2:2z!<(! d'2 (3:2:2z!<)! ^f'2 (3:2:2z g'2) | %41
 (3:2:2z (e'2 (3:2:2z d'2 (3:2:2z ^f'2!<(! (3:2:2z g'2 | %42
 (3:2:2z!<)! ^f'2 (3:2:2z e'2 (3:2:2z d'2 (3:2:2z f'2) | %43
 (3:2:2z (!>!e'2 (3:2:2z d'2 (3:2:2z f'2 (3:2:2z g'2 | %44
!<(! (3:2:2z a'2 (3:2:2z _b'2 (3:2:2z c''2!<)! (3:2:2z d''2) | %45
!mf! (!tenuto![e'a'e'']2!8va)! !tenuto![dgd']2 !tenuto![Beb]2 !tenuto![cfc']2) | %46
 (!tenuto![eae']2 !tenuto![dgd']2 !tenuto![gc'g']2!>(! !tenuto![be'b']2)!>)! | %47
!>(! (!>![A,E]6!>)! [CG]2 |[K:bass]!pp! [E,A,D]4 [F,C]4) | %49
[K:treble]!pp!!8va(! (3:2:2z (e'2 (3:2:2z d'2 (3:2:2z ^f'2 (3:2:2z g'2 | %50
 (3:2:2z e'2 (3:2:2z d'2"_rit." (3:2:2z ^f'2 (3:2:2z e'2- | %51
 [ec'e'])!8va)!!ppp! z[I:staff +1] ([^FB]/4[I:staff -1][EAe]7/4-) [EAe]2- [EAe] z |] %52
V:4
 z2 | x4 E,2 F,2 | [F,,C,]2 [E,,B,,]2 [A,,E,]2 [C,G,]2 | x4 E,2 F,2 | [A,,,E,,C,]8 | %5
 z x2 x[K:treble] x4 | x8 | x8 | %8
!p! (6:4:6(!tenuto!^F,/^B,/^D/^G/[I:staff -1]^g/^b/)[I:staff +1] (6:4:6(B,/D/G/^B/[I:staff -1]g/b/)[I:staff +1] (6:4:6(D/G/B/^d/[I:staff -1]g/b/)[I:staff +1] (6:4:6(^F/G/B/d/[I:staff -1]b/!courtesy!^d'/) | %9
[I:staff +1] (6:4:6(!tenuto!=F,/_B,/=D/_A/[I:staff -1]_b/d'/)[I:staff +1] (6:4:6(_A,/D/F/_B/[I:staff -1]b/d'/)[I:staff +1] (6:4:6(D/A/B/f/[I:staff -1]d'/f'/)!8va(![I:staff +1] (6:4:6(f/b/d'/_a'/[I:staff -1]d'/f'/)!8va)! | %10
[I:staff +1][K:bass] (6:4:6(!tenuto!=E,/=B,/D/^G/[I:staff -1]d/^f/)[I:staff +1][K:treble] (6:4:6(^G,/D/^F/B/[I:staff -1]d/f/)[I:staff +1] (6:4:6(B,/F/^G/d/[I:staff -1]d/f/)[I:staff +1] (6:4:6(D/G/B/^f/[I:staff -1]d/f/) | %11
[I:staff +1][K:bass] (6:4:6(!tenuto!^C,/^F,/B,/E/[I:staff -1]e/^g/)[I:staff +1] (6:4:6(E,/B,/^C/^G/[I:staff -1]e/g/)[I:staff +1][K:treble] (6:4:6(^G,/C/E/B/[I:staff -1]e/g/)[I:staff +1] (6:4:6(B,/E/^G/^c/[I:staff -1]^f/b/)[I:staff +1][K:bass] | %12
[K:treble] ([B^d^f]2 [^F=ce]2 [=GB=d]2 [DA^c]2) | ([B^d^f]2 [^F=ce]2 [=GB=d]2 [DA^c]2) | %14
[K:bass] !>![=F,,=C,]8 | !>![F,,C,]8 | [F,,B,,]8 | %17
"_*  ces 4 measures peuvent être chantées une 8ve. plus bas" [E,,B,,]8 | [D,,_B,,D,]8 | %19
 !>!^C,,,[I:staff -1] (!>!^C2 D (3=F=GA-!>(! (3ABd)!>)! || %20
[M:3/4][I:staff +1][K:treble]"_doucement sonore" (f2 a2 e2 | f2!>(! g2 a2)!>)! | %22
 ([^A^c]^d [Ac]d [Ac]d) | ([^A^B]^d [AB]d [AB]d) | ([^A^c]^d [Ac]d [Ac]d) | %25
 ([^A^B]^d [AB]d [AB]d) |[K:bass] [_B,,,F,,](D, F,_B,DF) | %27
[K:treble] ([_B,E][DG] [B,E][DG] [B,E][DG]) |[K:bass] [_B,,,F,,](D, F,_B,DF) | %29
[K:treble]"_*  ces 4 measures peuvent être chantées une 8ve. plus bas" ([_B,E][DG] [B,E][DG] [B,E][DG]) | %30
[K:bass] [D,,A,,](E, ^F,A,E^F) | z (B,[K:treble] ^FAB^d) | %32
[K:bass] z (DE^F)!>(! [G,,=C,E,_B,]!>)![CG] |!p! [^A,,^C,^F,^A,](A,[K:treble] [^C^D]^G ^A^c) | %34
[K:bass] !arpeggio![^G,,^C,^F,B,](B,[K:treble]"^cédez" ^C^F B^c) || %35
[M:4/4][K:bass] z2!mf! (!>![_G,,_D,]4 [F,,C,]2 | [_B,,F,]2 [_D,_A,]4 [F,C]2- || %37
[M:3/4] [F,C]2 [_A,_E]4) || %38
[M:4/4]!pp! (3:2:2z [^F,C]2 (3:2:2[E,A,] [F,C]2 (3:2:2[E,A,] [F,C]2 (3:2:2[E,A,] [F,C]2 | %39
 (3:2:2[E,A,] [^F,C]2 (3:2:2[E,A,] [F,C]2 (3:2:2[E,A,] [F,C]2 (3:2:2[E,A,] [F,C]2 | %40
 (3:2:2[E,A,] [^F,C]2 (3:2:2[E,A,] [F,C]2 (3:2:2[E,A,] [F,C]2 (3:2:2[E,A,] [F,C]2 | %41
 (3:2:2z [A,E]2 (3:2:2[G,C] [A,E]2 (3:2:2[G,C] [A,E]2 (3:2:2[G,C] [A,E]2 | %42
 (3:2:2[G,C] [A,E]2 (3:2:2[G,C] [A,E]2 (3:2:2[G,C] [A,E]2 (3:2:2[G,C] [A,E]2 | %43
"^m.d." (3:2:2[E,=F,_B,] D2 (3:2:2([F,D] [B,F]2)[K:treble] (3:2:2([_B,F] [DG]2) (3:2:2([DG] [F_B]2) | %44
 (3:2:2([F_B] [Gd]2) (3:2:2([Ad] [Bf]2) (3:2:2([Bf] [d_b]2) (3:2:2([db] [fd']2) | %45
[K:bass] (!tenuto![F,,C,A,]2 !tenuto![E,,=B,,G,]2 !tenuto![C,,G,,E,]2 !tenuto![D,,A,,F,]2) | %46
 (!tenuto![F,,C,A,]2 !tenuto![E,,B,,G,]2 !tenuto![A,,E,C]2 !tenuto![C,G,E]2) | %47
 (!>![F,,C,]6 [A,,E,]2 | [C,,G,,]4 [D,,A,,]4) | %49
 (3:2:2z [^F,C]2 (3:2:2[E,A,] [F,C]2 (3:2:2[E,A,] [F,C]2 (3:2:2[E,A,] [F,C]2 | %50
 (3:2:2[E,A,] [^F,C]2 (3:2:2[E,A,] [F,C]2 (3:2:2[E,A,] [F,C]2 (3:2:2[E,A,] [F,C]2- | %51
 [^F,C] z[K:treble] z/4 z/4 z/ z z2[K:bass]!8vb(! A,,,, z!8vb)! |] %52
V:5
 x2 | ([F,,C,]2 [E,,B,,]2 [C,,G,,]2 [D,,A,,]2 | x8 | [F,,C,]2 [E,,B,,]2 [C,,G,,]2 [D,,A,,]2) | x8 | %5
 x4[K:treble] x4 | !>!^d2 !>!^c2 !>!d2 !>!c2 | !>!^d2 !>!^c2 !>!d2 !>!c2 | x8 | x6!8va(! x2!8va)! | %10
[K:bass] x2[K:treble] x6 |[K:bass] x4[K:treble] x4[K:bass]!ped!{/[B,,,^F,,]-} x/8 | %12
[K:treble] x2!ped-up! x6 | x8 |[K:bass] x8 | x8 | x8 | x8 | x7!ped! x | x4!ped-up! x4 || %20
[M:3/4][K:treble] x6 | x6 | x6 | x6 | x6 | x6 |[K:bass] x6 |[K:treble] x6 |[K:bass] x6 | %29
[K:treble] x6 |[K:bass] x6 | [^F,,B,,^D,A,]6[K:treble] |[K:bass] [A,,=D,^F,C]4 x2 | %33
 x2[K:treble] x4 |[K:bass] x2[K:treble] x4 ||[M:4/4][K:bass] x8 | x8 ||[M:3/4] x6 || %38
[M:4/4]!ped! [=A,,,=A,,]8-!ped-up! |!ped! [A,,,A,,]8-!ped-up! |!ped! [A,,,A,,]8!ped-up! | %41
!ped! [C,,G,,E,]8-!ped-up! |!ped! [C,,G,,E,]8!ped-up! |!ped! [_B,,,=F,,]8[K:treble]!ped-up! | %44
!ped! x8!ped-up! |[K:bass] x8 | x8 | x8 | x8 |!ped! [A,,,A,,]8- | [A,,,A,,]8 | %51
 x2[K:treble] x4[K:bass]!8vb(! x2!ped-up!!8vb)! |] %52
V:6
 x2 | x8 | x8 | x8 |[K:bass] (!>!B,2 E,4 A,2- | %5
 A,[I:staff +1] B,2 C (3E^FA[K:treble] (5:4:5B/[I:staff -1]c/e/^f/g/) |{/[^A^g]-} [Ag]8 | %7
{/[=A^c^g]-} [Acg]8 | x8 | x6!8va(! x2 | x8 | x65/8 | %12
[I:staff +1] (b'2!8va)![I:staff -1] a2 =g2 a2) | (b2 a2 =g2 a2) | [_A,=E]8 | [_A,D]8 | ^G,8 | %17
 [^G,F]8 | [F,_B,]8 | x8 ||[M:3/4] x6 | x6 | x6 | x6 | x6 | x6 | x/!8va(! x11/2 | x6 | x6 | x6 | %30
 x6!8va)! | [^C^DA^c]6 | z/ (^G/[ce^g]- [ceg]/A/[de^fa]) z/ (e/[=g_be']) | x9/2!8va(! x3/2 | %34
 x/!8va)! x4!8va(! x3/2!8va)! ||[M:4/4] x8 | x8 ||[M:3/4] x6 || %38
[M:4/4] (3x!8va(! a[ec'] (3x a[dc'] (3x c'[^fe'] (3x c'[ge'] | %39
 (3x a[^fc'] (3x a[ec'] (3x a[dc'] (3x a[fc'] | (3x a[ec'] (3x a[dc'] (3x c'[^fe'] (3x c'[ge'] | %41
 (3x g[ec'] (3x g[dc'] (3x c'[^fe'] (3x c'[ge'] | (3x c'[^fe'] (3x g[ec'] (3x g[dc'] (3x c'[fe'] | %43
 (3x f[e_b] (3x =f"^poco accel."!<(![db] (3x b[fd'] (3x b[gd']!<)! | %44
 (3x d'[af'] (3x d'[_bf'] (3x f'[d'_b'] (3x f'[d'_b'] | x2!8va)! x6 | x8 | x8 |[K:bass] x8 | %49
[K:treble]!8va(! (3x a[ec'] (3x a!<(![dc'] (3x c'[^fe']!<)! (3x c'[ge'] | %50
 (3x a!>(![ec'] (3x a!>)![dc'] (3x c'[^fe'] (3x a[ec']- | x!8va)! x7 |] %52
V:7
 x2 | x8 | x8 | x8 | x8 | x4[K:treble] x4 |{/[^F,E]-} [F,E]8 |{/[^F,^D]-} [F,D]8 | x8 | %9
 x6!8va(! x2!8va)! |[K:bass] x2[K:treble] x6 |[K:bass] x4[K:treble] x4[K:bass] |[K:treble] x8 | %13
 x8 |[K:bass] x8 | x8 | x8 | x8 | x7 x7/8{/[^C,,^G,,D,]-} !arpeggio!x/8 | x8 || %20
[M:3/4][K:treble] x6 | x6 | x6 | x6 | x6 | x6 |[K:bass] x6 |[K:treble] x6 |[K:bass] x6 | %29
[K:treble] x6 |[K:bass] x6 | x2[K:treble] x4 |[K:bass] x6 | x2[K:treble] x4 | %34
[K:bass] x2[K:treble] x4 ||[M:4/4][K:bass] x8 | x8 ||[M:3/4] x6 ||[M:4/4] x8 | x8 | x8 | x8 | x8 | %43
 x4[K:treble] x4 | x8 |[K:bass] x8 | x8 | x8 | x8 | x8 | x8 | %51
 x2[K:treble] x4[K:bass]!8vb(! x2!8vb)! |] %52
V:8
 x2 | x8 | x8 | x8 |[K:bass] x8 | x6[K:treble] x2 | x161/20 | x161/20 | x8 | x6!8va(! x2 | x8 | %11
 x65/8 | x2/3!8va)! x22/3 | x8 | x8 | x8 | x8 | x8 | x7 x7/8{/!>![F,=B,EA]-} x/8 | x8 || %20
[M:3/4] x6 | x6 | x6 | x6 | x6 | x6 | x/!8va(! x11/2 | x6 | x6 | x6 | x6!8va)! | %31
 x9/2!8va(! x3/2!8va)! | x6 | x9/2!8va(! x3/2 | x/!8va)! x4!8va(! x3/2!8va)! ||[M:4/4] x8 | x8 || %37
[M:3/4] x6 ||[M:4/4] x2/3!8va(! x22/3 | x8 | x8 | x8 | x8 | x8 | x8 | x2!8va)! x6 | x8 | x8 | %48
[K:bass] x8 |[K:treble]!8va(! x8 | x8 | x!8va)! x7 |] %52

